X:162
T:Humours of Scarrif, The
R:reel
D:Bothy Band: Old Hag, You've Killed Me
D:Oisin: Over the Moor to Maggie
Z:id:hn-reel-162
M:C|
K:Ddor
d3e f2ed|cAGc AcGc|Acde (3fgf ed|cAGE EGD2:|
|:e2ge aege|eg~g2 ea~a2|1 e2ge aege|edcd edcd:|2 ~a3^f ~g3e|dcAG EGD2||
P:variations
|:Adde fded|cAGc AcGc|Adde fded|cAGE EDD2:|
|:ecgc acgc|ecgc eaag|1 ecgc acgc|edcd eddf:|2 ~a3g efed|cAGE EDD2||
P:more variations
|:d3e fded|cAGc AcGc|Acde f2ed|cAGE EDD2:|
|:ecgc acgc|ecgc eddf|ecgc acgc|(3efe df edcd|
ecgc acgc|ecgc edeg|a2ag eged|cAGE EDD2||

